X:2
T:Boys of Barr na Sraide
S:Josh Perkins
Z:Transcribed by Alan Ng agng@students.wisc.edu 7 June 2002
K:A
M:6/8
E|"D"F2F F2E|"A"E2C A,2A,|C2B, "E"B,2B,|B,3 B,2F|:\
"A"E2C EFA|"E"B3 "A"A2c/B/|"D"A2F "A"E2F|A3-A2F:|
\bigskip
